build/img/sprite/vk.svg

<svg width="40" height="40" viewBox="0 0 40 40" fill="currentColor" xmlns="http://www.w3.org/2000/svg">
<path d="M26.617 22.4544C25.3818 21.2726 25.2935 21.2726 26.3523 19.9091C27.6758 18.1819 29.4405 16.0002 27.8523 16.0002H24.9406C24.4112 16.0002 24.323 16.3638 24.1465 16.8184C23.4406 18.5455 22.0289 20.8181 21.4995 20.4545C20.9701 20.0909 21.2348 18.7273 21.2348 16.5457C21.323 16.2729 21.2348 16.0002 21.0583 15.8184C20.8819 15.6366 20.6172 15.4548 20.3525 15.4548C19.9113 15.3639 19.4702 15.273 19.029 15.273C17.3526 15.273 16.2056 16.0002 16.8232 16.0911C17.9702 16.2729 17.882 18.8182 17.6173 19.9091C17.1761 21.8181 15.4115 18.4546 14.6174 16.7275C14.5291 16.2729 14.1762 16.0002 13.735 16.0002H11.441C11.0881 16.0002 10.8234 16.0911 10.8234 16.3638C10.8234 16.8184 13.0292 21.2726 15.0585 23.5452C17.0879 25.7269 19.1172 25.5451 20.529 25.5451C20.7054 25.5451 20.8819 25.4542 20.9701 25.3633C21.0583 25.2724 21.1466 25.0906 21.1466 24.9088C21.1466 23.4543 21.676 22.7271 22.6465 23.727C23.7053 24.8179 23.97 25.5451 25.2935 25.5451H27.6758C28.2934 25.5451 28.4699 25.3633 28.4699 25.0906C28.5581 24.4543 27.4993 23.2725 26.617 22.4544ZM20.3525 5.00091C28.5581 5.18272 35.0873 12.0005 34.9991 20.2727C34.9109 28.5449 28.117 35.09 19.9113 34.9991C11.6175 34.9082 5 28.2722 5 20C5.08823 11.6369 11.9704 4.91001 20.3525 5.00091Z" fill="currentColor"/>
</svg>

<svg width="40" height="40" fill="currentColor" xmlns="http://www.w3.org/2000/svg"><path d="M26.617 22.454c-1.235-1.181-1.323-1.181-.265-2.545C27.676 18.182 29.44 16 27.852 16h-2.911c-.53 0-.618.364-.794.818-.706 1.727-2.118 4-2.647 3.636-.53-.363-.265-1.727-.265-3.908a.722.722 0 0 0-.177-.728c-.176-.181-.44-.363-.706-.363-.44-.091-.882-.182-1.323-.182-1.676 0-2.823.727-2.206.818 1.147.182 1.059 2.727.794 3.818-.44 1.91-2.206-1.454-3-3.181a.865.865 0 0 0-.882-.728h-2.294c-.353 0-.618.091-.618.364 0 .454 2.206 4.909 4.236 7.181 2.029 2.182 4.058 2 5.47 2 .176 0 .353-.09.441-.182a.706.706 0 0 0 .177-.454c0-1.455.529-2.182 1.5-1.182 1.058 1.09 1.323 1.818 2.647 1.818h2.382c.617 0 .794-.182.794-.454.088-.637-.97-1.819-1.853-2.637ZM20.352 5.001c8.206.182 14.735 7 14.647 15.272-.088 8.272-6.882 14.817-15.088 14.726C11.617 34.91 5 28.272 5 20c.088-8.363 6.97-15.09 15.352-15Z"/></svg>
